flaticon/fitness/proteins.svg

<svg xmlns="http://www.w3.org/2000/svg" width="32" height="32" viewBox="0 0 24 24">
    <path d="M 16.800781 6.425781 L 16.800781 5.601562 L 18 5.601562 C 18.640625 5.601562 19.199219 5.078125 19.199219 4.398438 L 19.199219 1.199219 C 19.199219 0.558594 18.679688 0 18 0 L 6 0 C 5.359375 0 4.800781 0.519531 4.800781 1.199219 L 4.800781 4.398438 C 4.800781 5.039062 5.320312 5.601562 6 5.601562 L 7.199219 5.601562 L 7.199219 6.425781 C 5.628906 6.625 4.398438 7.976562 4.398438 9.601562 L 4.398438 20.800781 C 4.398438 22.558594 5.839844 24 7.601562 24 L 16.398438 24 C 18.160156 24 19.601562 22.558594 19.601562 20.800781 L 19.601562 9.601562 C 19.601562 7.976562 18.371094 6.625 16.800781 6.425781 Z M 5.601562 4.398438 L 5.601562 4 L 9.601562 4 C 9.800781 4 10 3.839844 10 3.601562 C 10 3.359375 9.839844 3.199219 9.601562 3.199219 L 5.601562 3.199219 L 5.601562 2.398438 L 7.199219 2.398438 C 7.398438 2.398438 7.601562 2.238281 7.601562 2 C 7.601562 1.761719 7.441406 1.601562 7.199219 1.601562 L 5.601562 1.601562 L 5.601562 1.199219 C 5.601562 1 5.761719 0.800781 6 0.800781 L 18 0.800781 C 18.199219 0.800781 18.398438 0.960938 18.398438 1.199219 L 18.398438 1.601562 L 14.398438 1.601562 C 14.160156 1.601562 14 1.761719 14 2 C 14 2.199219 14.160156 2.398438 14.398438 2.398438 L 18.398438 2.398438 L 18.398438 3.199219 L 16.800781 3.199219 C 16.601562 3.199219 16.398438 3.359375 16.398438 3.601562 C 16.398438 3.800781 16.558594 4 16.800781 4 L 18.398438 4 L 18.398438 4.398438 C 18.398438 4.601562 18.238281 4.800781 18 4.800781 L 6 4.800781 C 5.800781 4.800781 5.601562 4.640625 5.601562 4.398438 Z M 16 5.601562 L 16 6.398438 L 8 6.398438 L 8 5.601562 Z M 7.601562 7.199219 L 16.398438 7.199219 C 17.71875 7.199219 18.800781 8.28125 18.800781 9.601562 L 18.800781 10.398438 L 5.199219 10.398438 L 5.199219 9.601562 C 5.199219 8.28125 6.28125 7.199219 7.601562 7.199219 Z M 18.800781 19.199219 L 5.199219 19.199219 L 5.199219 11.199219 L 18.800781 11.199219 Z M 16.398438 23.199219 L 7.601562 23.199219 C 6.28125 23.199219 5.199219 22.121094 5.199219 20.800781 L 5.199219 20 L 18.800781 20 L 18.800781 20.800781 C 18.800781 22.121094 17.71875 23.199219 16.398438 23.199219 Z M 16.398438 23.199219"/>
    <path d="M 10.398438 15.640625 L 12.71875 15.640625 L 10.878906 17.761719 C 10.71875 17.921875 10.761719 18.160156 10.921875 18.320312 C 11 18.359375 11.121094 18.398438 11.199219 18.398438 C 11.320312 18.398438 11.441406 18.359375 11.519531 18.28125 L 13.921875 15.480469 C 14 15.359375 14.039062 15.199219 13.960938 15.039062 C 13.878906 14.878906 13.761719 14.800781 13.601562 14.800781 L 11.28125 14.800781 L 13.078125 12.679688 C 13.238281 12.519531 13.199219 12.28125 13.039062 12.121094 C 12.878906 11.960938 12.640625 12 12.480469 12.160156 L 10.078125 14.960938 C 10 15.078125 9.960938 15.238281 10.039062 15.398438 C 10.121094 15.558594 10.238281 15.640625 10.398438 15.640625 Z M 10.398438 15.640625"/>
</svg>

<svg xmlns="http://www.w3.org/2000/svg" width="32" height="32" viewBox="0 0 24 24">
    <path d="M16.8 6.426v-.824H18c.64 0 1.2-.524 1.2-1.204V1.2C19.2.56 18.68 0 18 0H6c-.64 0-1.2.52-1.2 1.2v3.198c0 .641.52 1.204 1.2 1.204h1.2v.824c-1.571.199-2.802 1.55-2.802 3.176V20.8C4.398 22.559 5.84 24 7.602 24h8.796a3.212 3.212 0 0 0 3.204-3.2V9.603A3.216 3.216 0 0 0 16.8 6.426zM5.603 4.398V4h4A.4.4 0 0 0 10 3.602c0-.243-.16-.403-.398-.403h-4v-.8h1.597c.2 0 .403-.16.403-.399 0-.238-.16-.398-.403-.398H5.602v-.403A.4.4 0 0 1 6 .801h12a.4.4 0 0 1 .398.398v.403h-4c-.238 0-.398.16-.398.398 0 .2.16.398.398.398h4V3.2h-1.597a.4.4 0 1 0 0 .8l1.597.001v.398a.4.4 0 0 1-.398.403H6a.4.4 0 0 1-.398-.403zM16 5.602v.796H8v-.796zM7.602 7.199h8.796a2.41 2.41 0 0 1 2.403 2.403v.796H5.199v-.796a2.41 2.41 0 0 1 2.403-2.403zm11.199 12H5.199v-8h13.602zm-2.403 4H7.602a2.407 2.407 0 0 1-2.403-2.398V20h13.602v.8a2.407 2.407 0 0 1-2.403 2.4zm0 0"/>
    <path d="M10.398 15.64h2.32l-1.84 2.122c-.16.16-.116.398.044.558.078.04.2.078.277.078.121 0 .242-.039.32-.117l2.403-2.8a.44.44 0 0 0 .039-.442c-.082-.16-.2-.238-.36-.238h-2.32l1.797-2.121c.16-.16.121-.399-.039-.559-.16-.16-.398-.121-.559.04l-2.402 2.8a.432.432 0 0 0-.039.437c.082.16.2.243.36.243zm0 0"/>
</svg>
